X:1
T: Gigue du Salon
C: Pascal Gemme ©2013
%R: Jig
%S: PC3 / history PC, web
M: 6/8
L: 1/8
K: A
%P: A
y\
"A"EAB c2e |"D"d2e "A"cBA |"Bm"BcA B2A |   BcA "E"GFE  |
"A"EAB c3  |"D"d3  "A"cBA |"Bm"BcA BAF |"E"EFG    A2A :|
%%vskip .3cm
%%alignbars 3
%P: B
y\
  "A"e3  cBA |   efe cBA   |"Bm"BcA B2A |   BcA "E"GFE |
[1yy"A"e3  cBA |   efe cBA   |"Bm"BcA BAF |"E"EFG "A"A3  :|
[2  "A"EAB c2e |"D"d2e "A"cBA|"Bm"BcA BAF |"E"EFG "A"A2A |]
%%stretchlast .5
